images/color/svg/26d3.svg

<svg id="emoji" viewBox="0 0 72 72" xmlns="http://www.w3.org/2000/svg">
  <g id="color">
    <path fill="#D0CFCE" stroke="none" d="M42.6346,12.4476C42.1772,8.8038,39.0678,5.985,35.3,5.985c-4.0828,0-7.3925,3.3097-7.3925,7.3925v3.8019 c0,4.0828,3.3098,7.3925,7.3925,7.3925s7.3925-3.3097,7.3925-7.3925v-3.8019C42.6925,13.0625,42.6728,12.7522,42.6346,12.4476z M39.5468,16.3704c0,2.3455-1.9014,4.2468-4.2468,4.2468s-4.2468-1.9014-4.2468-4.2468v-2.184 c0-2.3455,1.9014-4.2467,4.2468-4.2467c2.1645,0,3.9507,1.6191,4.2135,3.7124c0.022,0.175,0.0333,0.3533,0.0333,0.5343V16.3704z"/>
    <path fill="#D0CFCE" stroke="none" d="M42.6346,33.2616c-0.4574-3.6438-3.5668-6.4625-7.3346-6.4625c-4.0828,0-7.3925,3.3097-7.3925,7.3925 v3.8019c0,4.0828,3.3098,7.3925,7.3925,7.3925s7.3925-3.3097,7.3925-7.3925v-3.8019 C42.6925,33.8766,42.6728,33.5663,42.6346,33.2616z M39.5468,37.1844c0,2.3455-1.9014,4.2468-4.2468,4.2468 s-4.2468-1.9014-4.2468-4.2468v-2.184c0-2.3455,1.9014-4.2467,4.2468-4.2467c2.1645,0,3.9507,1.6191,4.2135,3.7124 c0.022,0.175,0.0333,0.3533,0.0333,0.5343V37.1844z"/>
    <path fill="#D0CFCE" stroke="none" d="M42.6346,54.0756c-0.4574-3.6438-3.5668-6.4625-7.3346-6.4625c-4.0828,0-7.3925,3.3097-7.3925,7.3925 v3.8019c0,4.0828,3.3098,7.3925,7.3925,7.3925s7.3925-3.3097,7.3925-7.3925v-3.8019 C42.6925,54.6906,42.6728,54.3803,42.6346,54.0756z M39.5468,57.9984c0,2.3455-1.9014,4.2468-4.2468,4.2468 s-4.2468-1.9014-4.2468-4.2468v-2.184c0-2.3455,1.9014-4.2467,4.2468-4.2467c2.1645,0,3.9507,1.6191,4.2135,3.7124 c0.022,0.175,0.0333,0.3533,0.0333,0.5343V57.9984z"/>
  </g>
  <g id="hair"/>
  <g id="skin"/>
  <g id="skin-shadow"/>
  <g id="line">
    <path fill="none" stroke="#000000" stroke-linecap="round" stroke-linejoin="round" stroke-miterlimit="10" stroke-width="2" d="M39.5468,57.9985c0,2.3454-1.9013,4.2468-4.2468,4.2468s-4.2468-1.9013-4.2468-4.2468v-2.184 c0-2.3454,1.9013-4.2468,4.2468-4.2468c2.1645,0,3.9507,1.6193,4.2135,3.7125c0.022,0.175,0.0333,0.3533,0.0333,0.5342V57.9985z"/>
    <path fill="none" stroke="#000000" stroke-linecap="round" stroke-linejoin="round" stroke-miterlimit="10" stroke-width="2" d="M42.6925,58.8074c0,4.0828-3.3097,7.3925-7.3925,7.3925s-7.3925-3.3097-7.3925-7.3925v-3.8019 c0-4.0828,3.3097-7.3925,7.3925-7.3925c3.7678,0,6.8772,2.8188,7.3346,6.4625c0.0382,0.3046,0.0579,0.615,0.0579,0.93V58.8074z"/>
    <path fill="none" stroke="#000000" stroke-linecap="round" stroke-linejoin="round" stroke-miterlimit="10" stroke-width="2" d="M39.5468,37.1845c0,2.3454-1.9013,4.2468-4.2468,4.2468s-4.2468-1.9013-4.2468-4.2468v-2.184 c0-2.3454,1.9013-4.2468,4.2468-4.2468c2.1645,0,3.9507,1.6193,4.2135,3.7125c0.022,0.175,0.0333,0.3533,0.0333,0.5342V37.1845z"/>
    <path fill="none" stroke="#000000" stroke-linecap="round" stroke-linejoin="round" stroke-miterlimit="10" stroke-width="2" d="M42.6925,37.9934c0,4.0828-3.3097,7.3925-7.3925,7.3925s-7.3925-3.3097-7.3925-7.3925v-3.8019 c0-4.0828,3.3097-7.3925,7.3925-7.3925c3.7678,0,6.8772,2.8188,7.3346,6.4625c0.0382,0.3046,0.0579,0.615,0.0579,0.93V37.9934z"/>
    <path fill="none" stroke="#000000" stroke-linecap="round" stroke-linejoin="round" stroke-miterlimit="10" stroke-width="2" d="M39.5468,16.3705c0,2.3454-1.9013,4.2468-4.2468,4.2468s-4.2468-1.9013-4.2468-4.2468v-2.184 c0-2.3454,1.9013-4.2468,4.2468-4.2468c2.1645,0,3.9507,1.6193,4.2135,3.7125c0.022,0.175,0.0333,0.3533,0.0333,0.5342V16.3705z"/>
    <path fill="none" stroke="#000000" stroke-linecap="round" stroke-linejoin="round" stroke-miterlimit="10" stroke-width="2" d="M42.6925,17.1794c0,4.0828-3.3097,7.3925-7.3925,7.3925s-7.3925-3.3097-7.3925-7.3925v-3.8019 c0-4.0828,3.3097-7.3925,7.3925-7.3925c3.7678,0,6.8772,2.8188,7.3346,6.4625c0.0382,0.3046,0.0579,0.615,0.0579,0.93V17.1794z"/>
    <line x1="35.5" x2="35.5" y1="38.8919" y2="54" fill="none" stroke="#000000" stroke-linecap="round" stroke-linejoin="round" stroke-miterlimit="10" stroke-width="2"/>
    <line x1="35.5" x2="35.5" y1="17.9307" y2="33.0389" fill="none" stroke="#000000" stroke-linecap="round" stroke-linejoin="round" stroke-miterlimit="10" stroke-width="2"/>
  </g>
</svg>

<svg viewBox="0 0 72 72" xmlns="http://www.w3.org/2000/svg"><path d="M42.635 12.448a7.394 7.394 0 0 0-14.727.93v3.801a7.393 7.393 0 0 0 14.784 0v-3.801c0-.316-.02-.626-.057-.93zm-3.088 3.922a4.247 4.247 0 1 1-8.494 0v-2.184a4.247 4.247 0 0 1 8.494 0v2.184zm3.088 16.892a7.394 7.394 0 0 0-14.727.93v3.802a7.393 7.393 0 0 0 14.784 0v-3.802c0-.315-.02-.626-.057-.93zm-3.088 3.922a4.247 4.247 0 1 1-8.494 0V35a4.247 4.247 0 0 1 8.494 0v2.184zm3.088 16.892a7.394 7.394 0 0 0-14.727.93v3.802a7.393 7.393 0 0 0 14.784 0v-3.802c0-.315-.02-.626-.057-.93zm-3.088 3.922a4.247 4.247 0 1 1-8.494 0v-2.184a4.247 4.247 0 0 1 8.494 0v2.184z" fill="#D0CFCE"/><g fill="none" stroke="#000" stroke-linecap="round" stroke-linejoin="round" stroke-miterlimit="10" stroke-width="2"><path d="M39.547 57.998a4.247 4.247 0 1 1-8.494 0v-2.183a4.247 4.247 0 0 1 8.494 0v2.184z"/><path d="M42.693 58.807a7.392 7.392 0 1 1-14.785 0v-3.802a7.392 7.392 0 1 1 14.785 0v3.802zm-3.146-21.623a4.247 4.247 0 1 1-8.494 0v-2.183a4.247 4.247 0 0 1 8.494 0v2.184z"/><path d="M42.693 37.993a7.392 7.392 0 1 1-14.785 0v-3.802a7.392 7.392 0 1 1 14.785 0v3.802zM39.547 16.37a4.247 4.247 0 1 1-8.494 0v-2.184a4.247 4.247 0 0 1 8.494 0v2.184z"/><path d="M42.693 17.18a7.392 7.392 0 1 1-14.785 0v-3.802a7.392 7.392 0 1 1 14.785 0v3.801zM35.5 38.892V54m0-36.069v15.108"/></g></svg>
